X: 800
T: The Merry Old Woman. 2nd Setting.
C:F. O'Neill
B:O'Neill's Music of Ireland
N:O'Neill's - 800
Z:Transcribed by Stephen Foy (shf@access.digex.net)
Z:abc 1.6
R:Jig
M:6/8
K:G
G/A/|B3 AGF|DGG G2 A|BAB cBc|dgg fdc|BGB AFA|DGG FGA|
BdB cAF|AGG G2:|A|BAB cBc|dgg fdc|dgg gfg|agf g2 [aA]|
[1 BAB cBc|dgg fdc|B2 d cAF|AGG G2:|[2 bgb afa|gfd cAF|Bcd cAF|\
AGG G2|]


